packages/core/src/svgs/tokens/branded/PARA.svg

<svg width="24" height="24" viewBox="0 0 24 24" fill="none" xmlns="http://www.w3.org/2000/svg">
<path d="M3.02605 9.63295L11.9107 14.4316C12.3481 14.6689 12.8855 14.6689 13.3229 14.4316L20.9767 10.289C21.2849 10.1304 21.5434 9.88983 21.7239 9.59388C21.9044 9.29793 21.9999 8.95807 21.9999 8.61144C21.9999 8.2648 21.9044 7.92488 21.7239 7.62895C21.5434 7.33301 21.2849 7.0925 20.9767 6.93383L12.2294 2.22277C11.9628 2.07841 11.6642 2.00281 11.361 2.00281C11.0577 2.00281 10.7592 2.07841 10.4925 2.22277L3.01979 6.28403C2.71321 6.44328 2.45623 6.68365 2.27688 6.97892C2.09754 7.2742 2.00269 7.61304 2.00269 7.95851C2.00269 8.30399 2.09754 8.64283 2.27688 8.93811C2.45623 9.23335 2.71321 9.47375 3.01979 9.63295H3.02605Z" fill="url(#paint0_linear_364_8129)"/>
<path d="M4.91321 12.6445L11.9985 16.3935C12.4672 16.6434 13.042 16.6434 13.498 16.3747L18.9526 13.2319L20.9707 14.3191C21.2789 14.4778 21.5374 14.7182 21.7179 15.0142C21.8984 15.3101 21.9939 15.6501 21.9939 15.9966C21.9939 16.3433 21.8984 16.6833 21.7179 16.9793C21.5374 17.2751 21.2789 17.5156 20.9707 17.6742L13.3231 21.8168C12.8857 22.0542 12.3484 22.0604 11.911 21.8168L3.0263 17.0245C2.71781 16.8664 2.45884 16.6265 2.2778 16.3308C2.09676 16.0351 2.00066 15.6954 2 15.3488C1.99936 15.0022 2.09421 14.6621 2.27414 14.3659C2.45409 14.0695 2.71215 13.8285 3.02004 13.6693L4.91321 12.6445Z" fill="url(#paint1_linear_364_8129)"/>
<defs>
<linearGradient id="paint0_linear_364_8129" x1="1.99843" y1="12.1819" x2="19.8336" y2="12.103" gradientUnits="userSpaceOnUse">
<stop stop-color="#02DAFF"/>
<stop offset="1" stop-color="#5414F1"/>
</linearGradient>
<linearGradient id="paint1_linear_364_8129" x1="2.00161" y1="15.806" x2="19.8336" y2="15.6871" gradientUnits="userSpaceOnUse">
<stop stop-color="#FECF7B"/>
<stop offset="1" stop-color="#EF26A8"/>
</linearGradient>
</defs>
</svg>

<svg xmlns="http://www.w3.org/2000/svg" width="24" height="24" fill="none" viewBox="0 0 24 24">
    <path fill="url(#PARA__a)" d="m3.026 9.633 8.885 4.799a1.49 1.49 0 0 0 1.412 0l7.654-4.143a1.886 1.886 0 0 0 0-3.355l-8.748-4.711a1.82 1.82 0 0 0-1.736 0L3.02 6.284a1.887 1.887 0 0 0 0 3.349z"/>
    <path fill="url(#PARA__b)" d="M4.913 12.645 12 16.394c.468.25 1.043.25 1.499-.02l5.455-3.142 2.018 1.087a1.887 1.887 0 0 1 0 3.355l-7.648 4.143a1.47 1.47 0 0 1-1.412 0l-8.885-4.792a1.886 1.886 0 0 1-.006-3.356z"/>
    <defs>
        <linearGradient id="PARA__a" x1="1.998" x2="19.834" y1="12.182" y2="12.103" gradientUnits="userSpaceOnUse">
            <stop stop-color="#02DAFF"/>
            <stop offset="1" stop-color="#5414F1"/>
        </linearGradient>
        <linearGradient id="PARA__b" x1="2.002" x2="19.834" y1="15.806" y2="15.687" gradientUnits="userSpaceOnUse">
            <stop stop-color="#FECF7B"/>
            <stop offset="1" stop-color="#EF26A8"/>
        </linearGradient>
    </defs>
</svg>
